src/shared/routelogo/images/r.svg

<?xml version="1.0" standalone="no"?>
<!DOCTYPE svg PUBLIC "-//W3C//DTD SVG 1.1//EN" "http://www.w3.org/Graphics/SVG/1.1/DTD/svg11.dtd">
<svg width="100%" height="100%" viewBox="0 0 90 90" version="1.1" xmlns="http://www.w3.org/2000/svg" xmlns:xlink="http://www.w3.org/1999/xlink" xml:space="preserve" style="fill-rule:evenodd;clip-rule:evenodd;stroke-linejoin:round;stroke-miterlimit:1.41421;">
    <g id="R">
        <circle cx="45" cy="45" r="45" style="fill:rgb(252,204,10);"/>
        <path d="M36.0319,29.3424L36.0319,42.2331L47.3926,42.2331C49.6495,42.2331 51.3422,41.9727 52.4707,41.4518C54.4672,40.5404 55.4655,38.7391 55.4655,36.0482C55.4655,33.1402 54.4998,31.1871 52.5684,30.1888C51.4833,29.6246 49.8557,29.3424 47.6855,29.3424L36.0319,29.3424ZM57.5326,22.2461C59.3446,23.0056 60.88,24.1233 62.1387,25.599C63.1803,26.8142 64.005,28.1597 64.6126,29.6354C65.2203,31.1111 65.5241,32.793 65.5241,34.681C65.5241,36.9596 64.949,39.2003 63.7988,41.403C62.6487,43.6057 60.7498,45.1628 58.1022,46.0742C60.3158,46.964 61.8837,48.2281 62.806,49.8665C63.7283,51.505 64.1895,54.0061 64.1895,57.3698L64.1895,60.5924C64.1895,62.7843 64.2763,64.2708 64.4499,65.0521C64.7103,66.2891 65.3179,67.2005 66.2728,67.7865L66.2728,68.9909L55.2376,68.9909C54.9338,67.9275 54.7168,67.0703 54.5866,66.4193C54.3262,65.0738 54.1851,63.6957 54.1634,62.2852L54.0983,57.8255C54.0549,54.7656 53.4961,52.7257 52.4219,51.7057C51.3477,50.6858 49.3349,50.1758 46.3835,50.1758L36.0319,50.1758L36.0319,68.9909L26.2337,68.9909L26.2337,21.0091L49.7689,21.0091C53.1326,21.0742 55.7205,21.4865 57.5326,22.2461Z" style="fill:black;fill-rule:nonzero;"/>
    </g>
</svg>

<svg viewBox="0 0 90 90" xmlns="http://www.w3.org/2000/svg" xml:space="preserve" style="fill-rule:evenodd;clip-rule:evenodd;stroke-linejoin:round;stroke-miterlimit:1.41421"><circle cx="45" cy="45" r="45" style="fill:#fccc0a"/><path d="M36.032 29.342v12.891h11.36c2.258 0 3.95-.26 5.079-.781 1.996-.912 2.995-2.713 2.995-5.404 0-2.908-.966-4.86-2.898-5.86-1.085-.563-2.712-.846-4.883-.846H36.032Zm21.5-7.096A12.129 12.129 0 0 1 62.14 25.6a14.855 14.855 0 0 1 2.474 4.036c.607 1.476.911 3.158.911 5.046 0 2.279-.575 4.52-1.725 6.722-1.15 2.203-3.05 3.76-5.697 4.671 2.214.89 3.782 2.154 4.704 3.793.922 1.638 1.383 4.14 1.383 7.503v3.222c0 2.192.087 3.679.26 4.46.261 1.237.869 2.148 1.824 2.734v1.205H55.238a34.431 34.431 0 0 1-.651-2.572 23.63 23.63 0 0 1-.424-4.134l-.065-4.46c-.043-3.06-.602-5.1-1.676-6.12-1.074-1.02-3.087-1.53-6.038-1.53H36.031v18.816h-9.798V21.009h23.535c3.364.065 5.952.477 7.764 1.237Z" style="fill:#000;fill-rule:nonzero"/></svg>
